X:1
T:Title
%%score { ( 1 2 ) [ ( 3 4 ) ] }
L:1/8
Q:1/4=96
M:3/4
K:F
V:1 treble nm="Soprano Alto"
V:2 treble 
V:3 bass nm="Tenor Bass"
V:4 bass 
V:1
 C2 | A4 BG | c4 BG | F4 E2 | F4 A2 | (A2 G2) G2 | =B4 B2 | c4 A2 | (A2 B2) A2 | G4 A2 | %10
w: 1.The|Lord's my *|Shep- herd *|I'll not|want, He|makes * me|down to|lie in|pas- * tures|green. He|
w: |||||* * to|walk doth|make with-|in * the|paths of|
w: 3.Yea,|tho I *|walk thru *|death's dark|vale, yet|will * I|fear no|ill; for|Thou * art|with me,|
w: 4.My|ta- ble *|Thou hast *|fur- nish-|éd in|pre- * sence|of my|foes; My|head * thou|dost with|
w: 5.Good-|ness and *|mer- cy *|all my|life shall|sure- * ly|fol- low|me; and|in * God's|house for|
 (B2 c2) B2 | A4 A2 | (G2 B2) d2 | F4 E2 | F4 z2 |] %15
w: lead- * eth|me the|qui- * et|wa- ters|by.|
w: right- * eous-|ness e'en|for * His|own name's|sake.|
w: and * Thy|rod and|staff * me|com- fort|still.|
w: oil * an-|noint, and|my * cup|o- ver-|flows.|
w: ev- * er-|more my|dwel- * ling-|place shall|be.|
V:2
 C2 | F4 GE | (A2 F2) D2 | C4 C2 | C4 F2 | F4 F2 | (D2 G2) F2 | E4 F2 | (F2 G2) F2 | E4 F2 | %10
w: ||||||||||
w: 2.My|soul He *|doth * re-|store a-|gain and|me *|||||
w: |tho I *|walk * thru|death's dark|vale, yet|will I|fear * no|ill; for|Thou * art|with me,|
 (G2 A2) G2 | F4 F2 | D4 D2 | C4 C2 | C4 x2 |] %15
w: |||||
w: |||||
w: and * Thy|rod and|staff me|com- fort|still.|
V:3
 A,2 | C4 B,2 | A,4 B,2 | A,4 G,2 | A,4 C2 | =B,4 B,2 | D4 D2 | C4 C2 | (C2 G,2) A,B, | C4 C2 | %10
 C4 C2 | C4 C2 | B,4 B,2 | A,4 G,2 | A,4 z2 |] %15
V:4
 F,2 | F,4 F,2 | F,4 B,,2 | C,4 C,2 | F,4 F,E, | D,4 D,2 | G,4 G,,2 | C,4 F,2 | C,4 C,2 | %9
 (C,2 B,2) A,2 | (G,2 C,2) D,E, | F,4 F,2 | B,,4 B,,2 | C,4 C,2 | F,4 x2 |] %15

